frontend/src/assets/figma/downloaded/request-cover-band.svg

<svg preserveAspectRatio="none" width="100%" height="100%" overflow="visible" style="display: block;" viewBox="0 0 40.9614 20.199" fill="none" xmlns="http://www.w3.org/2000/svg">
<g id="cover band">
<path id="Vector" d="M31.4105 20.199C30.3021 20.199 29.3577 19.8088 28.5773 19.0285C27.797 18.2481 27.4068 17.3038 27.4068 16.1954C27.4068 15.0919 27.797 14.15 28.5773 13.3697C29.3627 12.5844 30.307 12.1917 31.4105 12.1917C32.4443 12.1917 33.3465 12.5396 34.1169 13.2355V9.24673H35.4216V20.199H34.1169V19.1552C33.3465 19.8511 32.4443 20.199 31.4105 20.199ZM31.4105 18.9017C31.7783 18.9017 32.1262 18.8322 32.4543 18.693C32.7823 18.5488 33.0681 18.355 33.3117 18.1114C33.5602 17.8629 33.7565 17.5746 33.9007 17.2466C34.0448 16.9185 34.1169 16.5681 34.1169 16.1954C34.1169 15.8275 34.0448 15.4796 33.9007 15.1516C33.7565 14.8235 33.5602 14.5377 33.3117 14.2942C33.0681 14.0457 32.7823 13.8518 32.4543 13.7126C32.1262 13.5685 31.7783 13.4964 31.4105 13.4964C31.0377 13.4964 30.6873 13.5685 30.3592 13.7126C30.0361 13.8518 29.7503 14.0457 29.5018 14.2942C29.2583 14.5377 29.0644 14.8235 28.9203 15.1516C28.7811 15.4796 28.7115 15.8275 28.7115 16.1954C28.7115 16.5681 28.7811 16.9185 28.9203 17.2466C29.0644 17.5746 29.2583 17.8629 29.5018 18.1114C29.7503 18.355 30.0361 18.5488 30.3592 18.693C30.6873 18.8322 31.0377 18.9017 31.4105 18.9017Z" fill="var(--fill-0, white)"/>
<path id="Vector_2" d="M20.1091 20.1979V12.1906H21.4138V12.7647C21.9407 12.382 22.5346 12.1906 23.1957 12.1906C23.6033 12.1906 23.9885 12.2676 24.3513 12.4217C24.7142 12.5758 25.0323 12.7871 25.3056 13.0555C25.584 13.3239 25.8077 13.637 25.9767 13.9949C26.1456 14.3478 26.2401 14.7255 26.26 15.1281L26.2525 20.1979H24.9478V15.1281C24.9329 14.9044 24.8757 14.6932 24.7763 14.4944C24.6769 14.2956 24.5477 14.1216 24.3886 13.9725C24.2345 13.8234 24.0531 13.7066 23.8443 13.6221C23.6405 13.5376 23.4243 13.4953 23.1957 13.4953C22.9621 13.4953 22.7409 13.5401 22.5321 13.6295C22.3284 13.714 22.1469 13.8308 21.9879 13.98C21.8288 14.1241 21.6996 14.2956 21.6002 14.4944C21.5057 14.6932 21.4511 14.9044 21.4362 15.1281H21.4138V20.1979H20.1091Z" fill="var(--fill-0, white)"/>
<path id="Vector_3" d="M13.6817 20.1979C12.5733 20.1979 11.6289 19.8077 10.8486 19.0274C10.0682 18.247 9.67802 17.3027 9.67802 16.1943C9.67802 15.0908 10.0682 14.1489 10.8486 13.3686C11.6339 12.5833 12.5783 12.1906 13.6817 12.1906C14.7156 12.1906 15.6177 12.5385 16.3881 13.2344V12.1906H17.6928V20.1979H16.3881V19.1541C15.6177 19.85 14.7156 20.1979 13.6817 20.1979ZM13.6817 18.9007C14.0495 18.9007 14.3974 18.8311 14.7255 18.6919C15.0535 18.5478 15.3393 18.3539 15.5829 18.1104C15.8314 17.8618 16.0277 17.5736 16.1719 17.2455C16.316 16.9175 16.3881 16.567 16.3881 16.1943C16.3881 15.8265 16.316 15.4785 16.1719 15.1505C16.0277 14.8224 15.8314 14.5366 15.5829 14.2931C15.3393 14.0446 15.0535 13.8507 14.7255 13.7116C14.3974 13.5674 14.0495 13.4953 13.6817 13.4953C13.3089 13.4953 12.9585 13.5674 12.6305 13.7116C12.3074 13.8507 12.0216 14.0446 11.7731 14.2931C11.5295 14.5366 11.3357 14.8224 11.1915 15.1505C11.0523 15.4785 10.9828 15.8265 10.9828 16.1943C10.9828 16.567 11.0523 16.9175 11.1915 17.2455C11.3357 17.5736 11.5295 17.8618 11.7731 18.1104C12.0216 18.3539 12.3074 18.5478 12.6305 18.6919C12.9585 18.8311 13.3089 18.9007 13.6817 18.9007Z" fill="var(--fill-0, white)"/>
<path id="Vector_4" d="M4.81732 20.199C3.77353 20.199 2.87388 19.8511 2.11837 19.1552V20.199H0.813635V9.24673H2.11837V13.2355C2.87388 12.5396 3.77353 12.1917 4.81732 12.1917C5.36407 12.1917 5.87851 12.2986 6.36064 12.5123C6.84774 12.721 7.27271 13.0093 7.63556 13.3771C8.00337 13.74 8.29414 14.1649 8.50787 14.652C8.72159 15.1342 8.82846 15.6486 8.82846 16.1954C8.82846 16.7471 8.72159 17.2665 8.50787 17.7536C8.29911 18.2357 8.01082 18.6582 7.64301 19.021C7.28017 19.3839 6.8552 19.6722 6.36809 19.8859C5.88099 20.0946 5.36407 20.199 4.81732 20.199ZM4.81732 18.9017C5.18513 18.9017 5.53306 18.8322 5.86111 18.693C6.18916 18.5488 6.47496 18.355 6.71851 18.1114C6.96703 17.8629 7.16336 17.5746 7.30751 17.2466C7.45165 16.9185 7.52372 16.5681 7.52372 16.1954C7.52372 15.8275 7.45165 15.4796 7.30751 15.1516C7.16336 14.8235 6.96703 14.5377 6.71851 14.2942C6.47496 14.0457 6.18916 13.8518 5.86111 13.7126C5.53306 13.5685 5.18513 13.4964 4.81732 13.4964C4.44454 13.4964 4.09412 13.5685 3.76607 13.7126C3.44299 13.8518 3.15719 14.0457 2.90867 14.2942C2.66512 14.5377 2.47127 14.8235 2.32713 15.1516C2.18796 15.4796 2.11837 15.8275 2.11837 16.1954C2.11837 16.5681 2.18796 16.9185 2.32713 17.2466C2.47127 17.5746 2.66512 17.8629 2.90867 18.1114C3.15719 18.355 3.44299 18.5488 3.76607 18.693C4.09412 18.8322 4.44454 18.9017 4.81732 18.9017Z" fill="var(--fill-0, white)"/>
<g id="Group 12066">
<path id="Vector_5" d="M40.0145 1.767C39.6765 1.45883 39.2814 1.30475 38.8291 1.30475C38.5955 1.30475 38.3743 1.34948 38.1655 1.43895C37.9617 1.52345 37.7803 1.64025 37.6213 1.78936C37.4622 1.9335 37.333 2.10498 37.2336 2.3038C37.1391 2.50262 37.0845 2.71386 37.0696 2.93753L37.0472 8.00734H35.7424V1.72108e-05H37.0472V0.574099C37.5741 0.191378 38.168 1.72108e-05 38.8291 1.72108e-05C39.6542 1.72108e-05 40.36 0.285815 40.9465 0.857412C40.9515 0.862382 40.9564 0.864867 40.9614 0.864867L40.0145 1.767Z" fill="var(--fill-0, white)"/>
<path id="Vector_6" d="M29.8967 8.00734C28.7883 8.00734 27.8439 7.61716 27.0636 6.83681C26.2832 6.05645 25.893 5.11208 25.893 4.00368C25.893 2.90025 26.2832 1.95836 27.0636 1.178C27.8489 0.392679 28.7933 1.72108e-05 29.8967 1.72108e-05C30.4435 1.72108e-05 30.9579 0.106881 31.44 0.320608C31.9271 0.529365 32.3521 0.817649 32.7149 1.18546C33.0828 1.5483 33.3735 1.97327 33.5872 2.46037C33.801 2.9425 33.9078 3.45693 33.9078 4.00368C33.9078 4.10806 33.9029 4.21492 33.8929 4.32427C33.883 4.43362 33.8681 4.54545 33.8482 4.65977H27.2723C27.3469 4.95302 27.4637 5.22391 27.6227 5.47243C27.7868 5.72095 27.9831 5.93716 28.2117 6.12107C28.4453 6.30497 28.7038 6.44912 28.9871 6.55349C29.2754 6.65787 29.5786 6.71006 29.8967 6.71006C30.1502 6.71006 30.3937 6.67527 30.6274 6.60568C30.8659 6.5361 31.0871 6.43917 31.2909 6.31491C31.4947 6.19065 31.6786 6.04403 31.8426 5.87503C32.0116 5.70107 32.1533 5.51219 32.2676 5.30841H33.6916C33.5574 5.6961 33.3661 6.05645 33.1175 6.38947C32.869 6.71752 32.5783 7.00332 32.2452 7.24686C31.9172 7.48544 31.5519 7.67183 31.1493 7.80604C30.7516 7.94024 30.3341 8.00734 29.8967 8.00734ZM27.2723 3.35504H32.5211C32.4465 3.06676 32.3248 2.79835 32.1558 2.54983C31.9917 2.29634 31.7929 2.07765 31.5593 1.89374C31.3307 1.70984 31.0747 1.56569 30.7914 1.46132C30.5081 1.35694 30.2098 1.30475 29.8967 1.30475C29.5836 1.30475 29.2829 1.35694 28.9946 1.46132C28.7113 1.56569 28.4528 1.70984 28.2192 1.89374C27.9905 2.07268 27.7942 2.28889 27.6302 2.54238C27.4662 2.7909 27.3469 3.06179 27.2723 3.35504Z" fill="var(--fill-0, white)"/>
<path id="Vector_7" d="M20.517 8.00734L18.1386 1.72108e-05H19.4955L21.4489 6.57586L23.4097 1.72108e-05H24.7667L22.3883 8.00734H20.517Z" fill="var(--fill-0, white)"/>
<path id="Vector_8" d="M13.0178 8.00734C11.9094 8.00734 10.965 7.61716 10.1847 6.83681C9.40431 6.05645 9.01413 5.11208 9.01413 4.00368C9.01413 2.90025 9.40431 1.95836 10.1847 1.178C10.97 0.392679 11.9144 1.72108e-05 13.0178 1.72108e-05C13.5646 1.72108e-05 14.079 0.106881 14.5611 0.320608C15.0482 0.529365 15.4732 0.817649 15.8361 1.18546C16.2039 1.5483 16.4946 1.97327 16.7084 2.46037C16.9221 2.9425 17.029 3.45693 17.029 4.00368C17.029 4.55539 16.9221 5.0748 16.7084 5.5619C16.4996 6.04403 16.2113 6.46651 15.8435 6.82935C15.4807 7.19219 15.0557 7.48047 14.5686 7.6942C14.0815 7.90296 13.5646 8.00734 13.0178 8.00734ZM13.0178 6.71006C13.3856 6.71006 13.7336 6.64048 14.0616 6.5013C14.3897 6.35716 14.6755 6.16332 14.919 5.91977C15.1675 5.67125 15.3639 5.38296 15.508 5.05492C15.6521 4.72687 15.7242 4.37646 15.7242 4.00368C15.7242 3.63587 15.6521 3.28794 15.508 2.95989C15.3639 2.63185 15.1675 2.34605 14.919 2.1025C14.6755 1.85398 14.3897 1.66013 14.0616 1.52096C13.7336 1.37682 13.3856 1.30475 13.0178 1.30475C12.645 1.30475 12.2946 1.37682 11.9666 1.52096C11.6435 1.66013 11.3577 1.85398 11.1092 2.1025C10.8656 2.34605 10.6718 2.63185 10.5276 2.95989C10.3885 3.28794 10.3189 3.63587 10.3189 4.00368C10.3189 4.37646 10.3885 4.72687 10.5276 5.05492C10.6718 5.38296 10.8656 5.67125 11.1092 5.91977C11.3577 6.16332 11.6435 6.35716 11.9666 6.5013C12.2946 6.64048 12.645 6.71006 13.0178 6.71006Z" fill="var(--fill-0, white)"/>
<path id="Vector_9" d="M4.00394 8.00734C2.89553 8.00734 1.95115 7.61716 1.17079 6.83681C0.390431 6.05645 0.000252518 5.11208 0.000252518 4.00368C0.000252518 2.90025 0.390431 1.95836 1.17079 1.178C1.95612 0.392679 2.9005 1.72108e-05 4.00394 1.72108e-05C4.44133 1.72108e-05 4.85885 0.0696028 5.25648 0.208774C5.65909 0.342975 6.02442 0.529365 6.35247 0.767944C6.68548 1.00652 6.97625 1.29232 7.22478 1.62534C7.4733 1.95339 7.66466 2.31125 7.79886 2.69895H6.37483C6.26051 2.50013 6.11885 2.31623 5.94986 2.14723C5.78584 1.97327 5.60193 1.82416 5.39814 1.6999C5.19435 1.57563 4.97317 1.47871 4.73459 1.40913C4.50098 1.33954 4.25743 1.30475 4.00394 1.30475C3.63115 1.30475 3.28074 1.37682 2.95269 1.52096C2.62961 1.66013 2.34381 1.85398 2.09529 2.1025C1.85174 2.34605 1.65789 2.63185 1.51375 2.95989C1.37458 3.28794 1.30499 3.63587 1.30499 4.00368C1.30499 4.37646 1.37458 4.72687 1.51375 5.05492C1.65789 5.38296 1.85174 5.67125 2.09529 5.91977C2.34381 6.16332 2.62961 6.35716 2.95269 6.5013C3.28074 6.64048 3.63115 6.71006 4.00394 6.71006C4.25743 6.71006 4.50098 6.67527 4.73459 6.60568C4.97317 6.5361 5.19435 6.43917 5.39814 6.31491C5.60193 6.19065 5.78584 6.04403 5.94986 5.87503C6.11885 5.70107 6.26051 5.51219 6.37483 5.30841H7.79886C7.66466 5.6961 7.4733 6.05645 7.22478 6.38947C6.97625 6.71752 6.68548 7.00332 6.35247 7.24686C6.02442 7.48544 5.65909 7.67183 5.25648 7.80604C4.85885 7.94024 4.44133 8.00734 4.00394 8.00734Z" fill="var(--fill-0, white)"/>
</g>
</g>
</svg>

<svg xmlns="http://www.w3.org/2000/svg" fill="none" overflow="visible" preserveAspectRatio="none" style="display:block" viewBox="0 0 40.961 20.199"><path fill="var(--fill-0, white)" d="M31.41 20.199q-1.662 0-2.833-1.17-1.17-1.17-1.17-2.834a3.85 3.85 0 0 1 1.17-2.825q1.179-1.178 2.833-1.178 1.55 0 2.707 1.043V9.248h1.305V20.2h-1.305v-1.044A3.9 3.9 0 0 1 31.41 20.2m0-1.297a2.65 2.65 0 0 0 1.902-.79q.373-.374.589-.865.216-.492.216-1.052 0-.55-.216-1.043a2.7 2.7 0 0 0-.59-.858 2.6 2.6 0 0 0-.857-.581 2.6 2.6 0 0 0-1.044-.217q-.559 0-1.05.217-.486.209-.858.581-.366.366-.582.858-.209.492-.209 1.043 0 .56.21 1.052.215.492.58.864.374.366.858.582.492.21 1.051.209m-11.3 1.295V12.19h1.304v.574a2.96 2.96 0 0 1 1.782-.574q.61 0 1.155.23.544.232.955.635.418.402.67.939.255.529.284 1.133l-.008 5.07h-1.304v-5.07a1.7 1.7 0 0 0-.172-.634 1.83 1.83 0 0 0-.932-.872 1.7 1.7 0 0 0-.648-.127q-.35 0-.664.135a1.8 1.8 0 0 0-.544.35q-.239.216-.388.514a1.7 1.7 0 0 0-.164.634h-.022v5.07zm-6.428 0q-1.663 0-2.833-1.17-1.17-1.171-1.171-2.834a3.85 3.85 0 0 1 1.17-2.825q1.178-1.178 2.834-1.178 1.551 0 2.706 1.043v-1.043h1.305v8.007h-1.305v-1.044a3.9 3.9 0 0 1-2.706 1.044m0-1.297a2.65 2.65 0 0 0 1.9-.79q.374-.374.59-.866t.216-1.05q0-.552-.216-1.045a2.7 2.7 0 0 0-.59-.857 2.6 2.6 0 0 0-.857-.581 2.6 2.6 0 0 0-1.043-.217q-.559 0-1.052.217-.484.209-.857.581-.364.366-.582.857-.208.493-.208 1.044 0 .56.208 1.052.217.492.582.864.373.366.857.582.493.21 1.052.209m-8.865 1.298q-1.565 0-2.699-1.044V20.2H.814V9.247h1.304v3.989q1.134-1.044 2.7-1.044.819 0 1.543.32.73.313 1.275.865.55.545.872 1.275.32.723.32 1.543 0 .828-.32 1.559a4.13 4.13 0 0 1-2.14 2.132 3.9 3.9 0 0 1-1.55.313m0-1.297a2.64 2.64 0 0 0 1.902-.79 2.8 2.8 0 0 0 .589-.865q.216-.492.216-1.052 0-.55-.216-1.043a2.7 2.7 0 0 0-.59-.858 2.6 2.6 0 0 0-.857-.581 2.6 2.6 0 0 0-1.044-.217q-.559 0-1.05.217a2.7 2.7 0 0 0-.858.581q-.366.366-.582.858-.209.492-.209 1.043 0 .56.21 1.052.215.492.58.864.374.366.858.582.492.21 1.051.209M40.015 1.767a1.7 1.7 0 0 0-1.186-.462q-.35 0-.663.134a1.8 1.8 0 0 0-.545.35q-.238.217-.387.515a1.7 1.7 0 0 0-.164.634l-.023 5.07h-1.305V0h1.305v.574A2.96 2.96 0 0 1 38.83 0q1.238 0 2.117.857.008.008.015.008zm-10.118 6.24q-1.663 0-2.833-1.17t-1.171-2.833a3.85 3.85 0 0 1 1.17-2.826Q28.242 0 29.898 0q.82 0 1.543.32.73.315 1.275.865.552.544.872 1.275a3.76 3.76 0 0 1 .261 2.2h-6.576q.113.44.35.812.247.373.59.65.35.275.775.431a2.65 2.65 0 0 0 1.64.053 2.75 2.75 0 0 0 1.216-.731q.253-.261.425-.567h1.424a4 4 0 0 1-.575 1.081q-.372.493-.872.858a4 4 0 0 1-2.348.76m-2.625-4.652h5.25a2.6 2.6 0 0 0-.366-.805 2.7 2.7 0 0 0-.597-.656 2.7 2.7 0 0 0-.768-.433 2.6 2.6 0 0 0-.894-.156 2.6 2.6 0 0 0-.902.156 2.8 2.8 0 0 0-.776.433 2.6 2.6 0 0 0-.589.648q-.246.373-.358.813m-6.756 4.652L18.139 0h1.357l1.953 6.576L23.409 0h1.358l-2.379 8.007zm-7.499 0q-1.663 0-2.833-1.17t-1.17-2.833a3.85 3.85 0 0 1 1.17-2.826Q11.363 0 13.018 0q.82 0 1.543.32.73.315 1.275.865.552.544.872 1.275.321.723.321 1.544 0 .826-.32 1.558a4.13 4.13 0 0 1-2.14 2.132 3.9 3.9 0 0 1-1.551.313m0-1.297a2.65 2.65 0 0 0 1.901-.79 2.8 2.8 0 0 0 .589-.865q.216-.493.216-1.051 0-.552-.216-1.044a2.7 2.7 0 0 0-.589-.857 2.6 2.6 0 0 0-.857-.582 2.6 2.6 0 0 0-1.044-.216q-.56 0-1.051.216-.486.21-.858.582-.365.365-.581.857-.21.492-.21 1.044 0 .559.21 1.05.216.493.581.866.373.365.858.581.492.21 1.05.21M4.004 8.007q-1.662 0-2.833-1.17T0 4.004a3.85 3.85 0 0 1 1.17-2.826Q2.349 0 4.004 0q.656 0 1.252.209.604.2 1.096.559.5.358.873.857.373.492.574 1.074H6.375a2.6 2.6 0 0 0-.425-.552 2.65 2.65 0 0 0-1.215-.738 2.6 2.6 0 0 0-.731-.104q-.56 0-1.051.216-.485.21-.858.582-.365.365-.581.857-.21.492-.209 1.044 0 .559.209 1.05.216.493.581.866.374.365.858.581.492.21 1.05.21.381 0 .732-.105a2.74 2.74 0 0 0 1.215-.731q.253-.261.425-.567h1.424a4 4 0 0 1-.574 1.081q-.373.493-.873.858a4 4 0 0 1-2.348.76"/></svg>
